X:1
T:In the Valley
T:In the Valley
T:Marcus Lafayette Williams
T:Marcus Lafayette Williams, 1913
T:Public Domain Courtesy of the Cyber Hymnal™
T:Public Domain Courtesy of the Cyber Hymnal™
C:Marcus Lafayette Williams
Z:Public Domain
Z:Courtesy of the Cyber Hymnal™
%%score ( 1 2 ) ( 3 4 )
L:1/8
Q:1/4=95
M:4/4
K:Bb
V:1 treble 
V:2 treble 
V:3 bass 
V:4 bass 
V:1
 [DB][Ec] | [Fd]2 [Fd][Fd] [Ec]!fermata![DB] F2 | [DB][EA][FB][EG] [CF]2 F2 | %3
w: 1.~It was|down in the val- ley, and|near the ri- ver side, Where|
w: 2.~It was|down in the val- ley I|wan- der in des- pair, And|
w: 3.~In the|val- ley so lone- ly I|oft- en kneel in prayer, And|
 [DB][EA][FB][Fc] [Fd]!fermata![Fd] [FB]>[Fc] | [Fd]2 [=Ec]>[Ed] !fermata![Fc]2 [DB][_Ec] | %5
w: last I saw my bro- ther ere he|crossed the dark tide; When the|
w: an- gels seem to ga- ther round me|ten- der- ly there; It is|
w: Je- sus helps me all my hea- vy|bur- dens to bear; When in|
 [Fd]2 [Fd][Fd] [Ec]!fermata![DB] F2 | [DB][EA][FB][EG] [CF]2 [DF][EG] | %7
w: trum- pet shall bid all the|dead in Christ a- rise, I shall|
w: down in the val- ley where|weep- ing wil- lows grow, That I|
w: si- lence the mo- ments of|life shall pass a- way, I will|
 [FB][Fc][Fd][Fd] [Fd]2 [GB]2 | [Fd]<[Fd] [Ec]>[Ec] !fermata![DB]2 ||"^Refrain" [DB]>[Ec] | %10
w: meet my loved ones, and there’ll|be no more good- byes.||
w: dream of home and loved ones|in the long a- go.|We shall|
w: jour- ney on- ward to the|realms of end- less day.||
 [Fd]4- [Fd]>[DB] [Ec]>[Fd] | [DB]6 B>d | c4- [Fc]>[Fc] [FB]>[Fc] | d6 [DB]>[Ec] | %14
w: ||||
w: meet * to part no|more, By and|by on the blest shore;|* We shall|
w: ||||
 [Fd]4- [Fd]>[DB] [Ec]>[Fd] | [Ge]6 B>c | d4- [Fd]>[FB] [Ec]>[Ec] | B6 |] %18
w: ||||
w: meet * to part no|more, Meet our|loved ones gone be- fore.||
w: ||||
V:2
 x2 | x6 (FE) | x6 (FE) | x8 | x8 | x6 (FE) | x8 | x8 | x6 || x2 | x8 | x8 | F>FF>F x4 | %13
 (F>FF>F F2) x2 | x8 | x8 | F>FG>G x4 | (D>GF>E D2) |] %18
V:3
 [B,,F,][B,,F,] | [B,,B,]2 [B,,B,][B,,B,] [B,,F,]!fermata![B,,F,] ([D,B,][C,A,]) | %2
w: ~ ~|~ ~ ~ ~ ~ ~ *|
 [B,,B,][C,F,][D,B,][E,B,] [F,A,]2 ([D,B,][C,A,]) | %3
w: ~ ~ ~ ~ ~ ~ *|
 [B,,B,][C,F,][D,B,][F,A,] [B,,B,]!fermata![B,,B,] [B,D]>[A,C] | %4
w: ~ ~ ~ ~ ~ ~ ~ ~|
 [G,B,]2 [C,G,]>[C,B,] !fermata![F,A,]2 [B,,F,][B,,F,] | %5
w: ~ ~ ~ ~ ~ ~|
 [B,,B,]2 [B,,B,][B,,B,] [B,,F,]!fermata![B,,F,] ([D,B,][C,A,]) | %6
w: ~ ~ ~ ~ ~ ~ *|
 [B,,B,][C,F,][D,B,][E,B,] [F,A,]2 [F,B,][E,B,] | [D,B,][F,A,]B,B, B,2 [G,D]2 | %8
w: ~ ~ ~ ~ ~ ~ ~|~ ~ ~ ~ ~ ~|
 [D,B,]<[D,B,] [F,A,]>[F,A,] !fermata![B,,B,]2 || z2 | z2 [B,,B,]>[B,,B,] [B,,B,]3/2 z/ z2 | %11
w: ~ ~ ~ ~ ~||We shall meet|
 z3/2 [B,,F,]/ [B,,F,]>[B,,F,] [B,,F,]2 z2 | %12
w: to part no more,|
 [F,A,]>[F,A,] [F,A,]>[F,A,] [F,A,]>[E,A,] [D,B,]>[F,A,] | B,>B, [F,B,]>[D,B,] [B,,B,]2 z2 | %14
w: By and by, yes, by and by, on|that blest shore, blest shore;|
 z2 [B,,B,]>[B,,B,] [B,,B,]3/2 z/ z2 | z3/2 [E,B,]/ [E,B,]>[E,B,] [E,B,]2 z2 | %16
w: We shall meet|to part no more,|
 B,>B, [G,B,]>[G,B,] [D,B,]>[D,B,] [F,A,]>[F,A,] | B,>B, A,>G, F,2 |] %18
w: Meet our loved ones, loved ones gone be-|fore, yes gone be- fore.|
V:4
 x2 | x8 | x8 | x8 | x8 | x8 | x8 | x2 B,B, B,2 x2 | x6 || x2 | x8 | x8 | x8 | B,>B, x6 | x8 | x8 | %16
 B,>B, x6 | B,,6 |] %18

